X:81
T:Engelska
R:hp 32 reel
C:Trad. arr. Ian Dedic
O:Sweden
N:cf English tune Liverpool Hornpipe
M:4/4
L:1/8
Q:2/4=70
K:D
|:D2FA Adef|gfed dcBA|G2BG F2AF|E2AG GFEF|
D2FA Adef|gfge dcBA|gfge dcBc|d2f2 d4:|]
|:Adfd Acec|Adfe Acec|AGBG F2AA|AGBG F2AA|
Adfd Acec|Adfd Acec|ABcd egec|e2d2 d4:|]

